src/assets/outline/Strongbox.svg

<svg width="24" height="24" viewBox="0 0 24 24"  xmlns="http://www.w3.org/2000/svg">
<path d="M15 22.75H9C3.57 22.75 1.25 20.43 1.25 15V9C1.25 3.57 3.57 1.25 9 1.25H15C20.43 1.25 22.75 3.57 22.75 9V15C22.75 20.43 20.43 22.75 15 22.75ZM9 2.75C4.39 2.75 2.75 4.39 2.75 9V15C2.75 19.61 4.39 21.25 9 21.25H15C19.61 21.25 21.25 19.61 21.25 15V9C21.25 4.39 19.61 2.75 15 2.75H9Z" />
<path d="M12.0001 16.56C10.9001 16.56 10.0001 15.66 10.0001 14.56V12.96C9.41012 12.47 9.01013 11.78 8.91013 11.01C8.89013 10.89 8.87012 10.72 8.87012 10.56C8.87012 9.58998 9.31012 8.68998 10.0901 8.08998C10.8701 7.48998 11.8701 7.29998 12.8301 7.54998C13.8801 7.82998 14.7501 8.68999 15.0201 9.73998C15.1301 10.15 15.1601 10.58 15.0901 11.01C14.9801 11.77 14.5901 12.46 14.0001 12.95V14.55C14.0001 15.66 13.1001 16.56 12.0001 16.56ZM11.9901 8.93998C11.6301 8.93998 11.2901 9.04998 11.0001 9.27998C10.6001 9.58998 10.3701 10.06 10.3701 10.56C10.3701 10.63 10.3701 10.71 10.3901 10.77C10.4601 11.27 10.7301 11.68 11.1501 11.94L11.5001 12.16V14.56C11.5001 14.84 11.7201 15.06 12.0001 15.06C12.2801 15.06 12.5001 14.84 12.5001 14.56V12.16L12.8501 11.94C13.2601 11.68 13.5401 11.27 13.6001 10.8V10.78C13.6401 10.56 13.6301 10.34 13.5701 10.13C13.4301 9.57998 12.9801 9.13998 12.4401 8.99998C12.2901 8.95998 12.1401 8.93998 11.9901 8.93998Z" />
<path d="M22.0001 10.16H14.3501V11.66H22.0001V10.16Z" />
<path d="M9.64999 10.16H2V11.66H9.64999V10.16Z" />
</svg>

<?xml version="1.0" encoding="UTF-8"?>
<svg width="24" height="24" viewBox="0 0 24 24" xmlns="http://www.w3.org/2000/svg">
 <path d="m15 22.75h-6c-5.43 0-7.75-2.32-7.75-7.75v-6c0-5.43 2.32-7.75 7.75-7.75h6c5.43 0 7.75 2.32 7.75 7.75v6c0 5.43-2.32 7.75-7.75 7.75zm-6-20c-4.61 0-6.25 1.64-6.25 6.25v6c0 4.61 1.64 6.25 6.25 6.25h6c4.61 0 6.25-1.64 6.25-6.25v-6c0-4.61-1.64-6.25-6.25-6.25h-6z"/>
 <path d="m12 16.56c-1.1 0-2-0.9-2-2v-1.6c-0.58998-0.49-0.98997-1.18-1.09-1.95-0.02-0.12-0.04001-0.29-0.04001-0.45 0-0.97002 0.44-1.87 1.22-2.47 0.78-0.6 1.78-0.79 2.74-0.54 1.05 0.28 1.92 1.14 2.19 2.19 0.11 0.41002 0.14 0.84002 0.07 1.27-0.11 0.76-0.5 1.45-1.09 1.94v1.6c0 1.11-0.9 2.01-2 2.01zm-0.01-7.62c-0.36 0-0.7 0.11-0.99 0.34-0.4 0.31-0.63 0.78002-0.63 1.28 0 0.07 0 0.15 0.02 0.21 0.07 0.5 0.34 0.91 0.76 1.17l0.35 0.22v2.4c0 0.28 0.22 0.5 0.5 0.5s0.5-0.22 0.5-0.5v-2.4l0.35-0.22c0.41-0.26 0.69-0.67 0.75-1.14v-0.02c0.04-0.22 0.03-0.44-0.03-0.65-0.14-0.55002-0.59-0.99002-1.13-1.13-0.15-0.04-0.3-0.06-0.45-0.06z"/>
 <path d="m22 10.16h-7.65v1.5h7.65v-1.5z"/>
 <path d="m9.65 10.16h-7.65v1.5h7.65v-1.5z"/>
</svg>
